icon-svg/hr1.svg

<svg xmlns="http://www.w3.org/2000/svg" viewBox="0 0 24 24"><path fill="#44739e" d="M14.949 8.385a17 17 0 0 0-2.61.261 2.23 2.23 0 0 0-1.93 1.964 5 5 0 0 0-.033.777v4.973h1.841v-5.08a1.17 1.17 0 0 1 .327-1 3 3 0 0 1 1.513-.368c.3-.024.892-.057.892-.057ZM3.759 4.826v3.812a12.3 12.3 0 0 1 2.249-.24c1.743.024 2.618.965 2.683 2.192.017.311.008.483.008.818v4.957h-1.84v-5.067c0-.622.041-1.391-1.35-1.383a6.8 6.8 0 0 0-1.693.2v6.249h-1.8V4.941Zm8.36 15.354A27 27 0 0 1 2 18.479v-1.031a25.8 25.8 0 0 0 9.939 1.75A31 31 0 0 0 22 17.489v1a31.1 31.1 0 0 1-9.881 1.693M18.2 4.172a2.086 2.086 0 1 0 2.082 2.086A2.09 2.09 0 0 0 18.2 4.172m.982 3.076v-2.45l-2.454.891v.606l.806-.297v1.839l1.644-.589ZM18.2 3.812a2.442 2.442 0 1 1-2.441 2.446A2.447 2.447 0 0 1 18.2 3.812"/></svg>

<?xml version="1.0" encoding="UTF-8"?>
<svg width="24px" fill="#44739e" height="24px" viewBox="0 0 24 24" version="1.1" xmlns="http://www.w3.org/2000/svg" xmlns:xlink="http://www.w3.org/1999/xlink">
            <path d="m 14.949,8.387 a 16.96,16.96 0 0 0 -2.61,0.261 2.228,2.228 0 0 0 -1.93,1.964 5.311,5.311 0 0 0 -0.033,0.777 v 4.973 h 1.841 v -5.08 a 1.172,1.172 0 0 1 0.327,-1 2.991,2.991 0 0 1 1.513,-0.368 c 0.3,-0.024 0.892,-0.057 0.892,-0.057 V 8.387 M 3.759,4.828 V 8.64 A 12.3,12.3 0 0 1 6.008,8.4 c 1.743,0.024 2.618,0.965 2.683,2.192 0.017,0.311 0.008,0.483 0.008,0.818 v 4.957 H 6.859 V 11.3 c 0,-0.622 0.041,-1.391 -1.35,-1.383 a 6.829,6.829 0 0 0 -1.693,0.2 v 6.249 h -1.8 V 4.943 L 3.759,4.828 m 8.36,15.354 A 27.047,27.047 0 0 1 2,18.481 V 17.45 A 25.8,25.8 0 0 0 11.939,19.2 31.017,31.017 0 0 0 22,17.491 v 1 a 31.11,31.11 0 0 1 -9.881,1.693 M 18.2,4.174 A 2.086,2.086 0 1 0 20.282,6.26 2.09,2.09 0 0 0 18.2,4.174 M 19.182,7.25 V 4.8 L 16.728,5.691 V 6.297 L 17.534,6 V 7.839 L 19.178,7.25 Z M 18.2,3.814 A 2.442,2.442 0 1 1 15.759,6.26 2.447,2.447 0 0 1 18.2,3.814"/>

</svg>
